images/dark/Create_Project.svg

<?xml version="1.0" encoding="UTF-8"?>
<svg width="16px" height="16px" viewBox="0 0 16 16" version="1.1" xmlns="http://www.w3.org/2000/svg" xmlns:xlink="http://www.w3.org/1999/xlink">
    <!-- Generator: Sketch 61 (89581) - https://sketch.com -->
    <title>16</title>
    <desc>Created with Sketch.</desc>
    <g id="16" stroke="none" stroke-width="1" fill="none" fill-rule="evenodd">
        <path d="M14.52,8.45 L12.8,7.45 L12.22,9.45 C11.7141231,9.49000694 11.2058769,9.49000694 10.7,9.45 L10.13,7.45 L8.4,8.45 C8.05130738,8.18127091 7.73872909,7.86869262 7.47,7.52 L8.24,6.17 L7.41,7 L1,7 L1,15 L15,15 L15,8 C14.8504587,8.16078006 14.6900836,8.31113171 14.52,8.45 Z" id="Path" fill="#D9D9D9" fill-rule="nonzero"></path>
        <polygon id="Path" fill="#D9D9D9" fill-rule="nonzero" points="8 5 6 3 1 3 1 6 7 6"></polygon>
        <polygon id="Path" fill="#FFD580" points="13.22 5.32 16 4.5 13.22 3.68 14.41 1.59 12.32 2.78 11.5 0 10.68 2.78 8.59 1.59 9.78 3.68 7 4.5 9.78 5.32 8.59 7.41 10.68 6.22 11.5 9 12.32 6.22 14.41 7.41"></polygon>
        <path d="M10.5,14 L10.5,10.5 L11.5,10.5 C12.1666667,10.5 12.5,10.8333333 12.5,11.5 C12.5,12.1666667 12.1666667,12.5 11.5,12.5 L10.5,12.5" id="Path-2" stroke="#666666"></path>
        <path d="M9,10.5 L7.5,10.5 C6.83333333,10.5 6.5,10.8333333 6.5,11.5 C6.5,12 8.5,12 8.5,12.5 C8.5,13.1666667 8.16666667,13.5 7.5,13.5 L6,13.5" id="Path-3" stroke="#666666"></path>
        <polyline id="Path-4" stroke="#666666" points="3.5 10 3.5 13.5 5 13.5"></polyline>
        <rect id="Rectangle-Copy-7" fill="#D8D8D8" opacity="0" x="0" y="0" width="16" height="16"></rect>
    </g>
</svg>

<svg id="layer" xmlns="http://www.w3.org/2000/svg" viewBox="0 0 16 16"><defs><style>.cls-1{fill:#d9d9d9;}.cls-2{fill:none;}.cls-3{fill:#666;}.cls-4{fill:#ffd580;fill-rule:evenodd;}</style></defs><title>Creat Project</title><path class="cls-1" d="M14.52,8.45l-1.72-1-.58,2a9.64,9.64,0,0,1-1.52,0l-.57-2-1.73,1a5.12,5.12,0,0,1-.93-.93l.77-1.35L7.41,7H1v8H15V8A4.81,4.81,0,0,1,14.52,8.45Z"/><rect class="cls-2" width="16" height="16"/><polygon class="cls-1" points="8 5 6 3 1 3 1 6 7 6 8 5"/><path class="cls-3" d="M5.46,13.3V14H3V10h.76v3.3Z"/><path class="cls-3" d="M6,13.5l.36-.41.34.2A.93.93,0,0,0,7,13.4a1.75,1.75,0,0,0,.43,0,1.13,1.13,0,0,0,.63-.16.48.48,0,0,0,.21-.38v-.07a.42.42,0,0,0-.13-.33,1.18,1.18,0,0,0-.48-.23l-.58-.19c-.62-.2-.94-.52-.94-1V11a.81.81,0,0,1,.17-.49,1.18,1.18,0,0,1,.49-.37A2,2,0,0,1,7.58,10a2.13,2.13,0,0,1,.78.13A2,2,0,0,1,9,10.5l-.35.38a2.08,2.08,0,0,0-.5-.27,1.39,1.39,0,0,0-.52-.08.9.9,0,0,0-.54.13.38.38,0,0,0-.19.32v.09a.34.34,0,0,0,.15.27,1.35,1.35,0,0,0,.48.22l.53.17a1.77,1.77,0,0,1,.71.38.86.86,0,0,1,.25.66v.14a.87.87,0,0,1-.19.57,1.2,1.2,0,0,1-.54.38,1.94,1.94,0,0,1-.78.14A2.16,2.16,0,0,1,6,13.5Z"/><path class="cls-3" d="M12.58,10.3a1,1,0,0,1,.42.84v.33a1,1,0,0,1-.45.85,2.07,2.07,0,0,1-1.21.31h-.55V14H10V10h1.44A1.93,1.93,0,0,1,12.58,10.3Zm-.37.88a.54.54,0,0,0-.21-.47.94.94,0,0,0-.59-.16h-.62v1.53h.52c.6,0,.9-.22.9-.64Z"/><polygon class="cls-4" points="13.22 5.32 16 4.5 13.22 3.68 14.41 1.59 12.32 2.78 11.5 0 10.68 2.78 8.59 1.59 9.78 3.68 7 4.5 9.78 5.32 8.59 7.41 10.68 6.22 11.5 9 12.32 6.22 14.41 7.41 13.22 5.32"/></svg>
